X:1
T:An dro : BBC 3
E:12
Z:Roger Ngaret (94-95)
R:andro
C:Trad.
S:
A:Bretagne
Q:1/4=100
M:2/4
L:1/16
K:C
GABc d2dc | B2BG d3c | BABc dedc | B2BG d3c |\
BABc d2dc | B2BG d3c | BABc dedc | B2BG d4 |:\
B2cd B3d | cBAc B2G2 | B2cd B3d | cBAB [G4g4] :|
